X:1
T:ON THE VOLGA
M:4/4
Q:1/4=120
K:C
A3^GA2B2|c3dc2B2|A3^GA2B2|c4G2G2|e8|e8|e4e4|
d2f2e2d2|c4c4|B4d2f2|e2d2c2B2|A4a7/2||
